X: 4022
T: WELCOME ROYAL CHARLIE.
R: Reel.
%R: reel
B: James Kerr "Merry Melodies" v.4 p.05 #22
Z: 2016 John Chambers <jc:trillian.mit.edu>
M: C|
L: 1/8
K: A
ue |\
dcBA GABc | dcBA Aaae |\
dcBA GABd | ceBc A2-A ::\
d |\
ceef dedB | ceef a/g/f/e/ ae |\
ceef dedB | ceBc A2-A :|

%%sep 1 1 500
%%sep 1 1 500

